src/assets/images/white_nav_logo.svg

<svg height="30" viewBox="0 0 146 30" width="146" xmlns="http://www.w3.org/2000/svg"><g fill="#fff" fill-rule="evenodd"><text font-family="Avenir-Medium, Avenir" font-size="20" font-weight="400" letter-spacing=".2125" transform="translate(34 1)"><tspan x="0" y="20">CryptoWise</tspan></text><path d="m23.5880209 27.0176142c-.259487-.8873163-.5838458-1.7429427-.8108969-2.6302589-.1621794-.5387277-.3567947-1.1091453-.3567947-1.6795629.0324359-.3485885-.0324358-.9190061-.0648717-1.2675946-.0648718-.4119683-.0973077-.8239365-.1946153-1.2042149-.1297435-.7288669-1.4596145-3.771094-1.1028198-3.771094.3567946 0 .6162816.3168986.7135893.475348.2270511.3168986.2919229-.0950696.2919229-.2218291 0-.3168987-.0648718-.6654872-.1621794-.9823858-.0973076-.4119683-.259487-.7922467-.4541023-1.1725251-.2270511-.475348-.3892305-.950696-.7135893-1.3943541-.0973076-.0950696-.1946153-.1901392-.2270512-.3485885 0-.0633797 0-.0950696.0324359-.1584493.0973077-.1584494.5838458-.1901392-.1621794-.9190061s-3.5679465-3.42250553-3.8923053-3.80278392c-.1297435-.12675946-.2270511-.28520879-.259487-.47534799-.0973077-.31689866-.0973077-.63379731-.2270512-.95069597s-.2919229-.63379732-.4541023-.95069597c-.1621793-.28520879-.4541022-.57041759-.5838458-.88731624-.1297435-.31689866-.1297435-.69717705.0324359-.98238584.2270512-.34858853.7135893-.76055678.5838458-1.17252504-.0973076-.31689865-.5514099.12675947-.7460252-.12675946-.1946152-.28520879.2919229-1.61618315-.2919229-1.36266423-.259487.12675947-1.0703839.79224665-1.2649992.91900611-.1621794.15844933-.0648717-.53872772-.259487-.41196825-.5514099.28520879-.5838458 1.04576557-.5838458 1.55280342 0 .12675946-.1297435.22182906-.259487.22182906-.5189741-.0950696-1.0055122-.15844933-1.5244863-.15844933-.2919229 0-1.20012747.0950696-1.2974351.03168987-.19461527-.0950696-.22705115-.44365812-.32435878-.63379732-.06487176-.12675946-.12974351-.28520879-.2919229-.34858852-.16217939-.0950696-.22705114.19013919-.38923053.03168986-.22705115-.22182906-.55140992-.85562637-.81089695-1.04576557-.2919229-.22182906-.16217939.22182906-.22705114.60210745-.06487176.22182906-.09730763.41196826-.2919229.60210745-.09730763.0950696-.2919229 0-.42166641.06337973-.16217939.0950696-.12974351.2852088-.12974351.44365812.03243588.44365812.32435878.82393651.5838458 1.17252504.2919229.38027839.19461526.53872771-.06487176.9190061-.51897404.79224665-.8757687 1.45773383-.97307633 2.4084298-.09730763.98238584.74602519 2.3133602 1.00551221 3.26405614.25948702.9190061.16217939 4.1830623.68115343 4.8802394.22705115.3485885.48653817.1267594 1.00551221 1.172525.51897405 1.0140757 1.29743511 2.5668791 1.68666566 3.2323663.2919229.5070379.6487175.8239365.9730763 1.172525.3243588.3168987.0973077.6654872-.0973076.7288669-.7135893.1901392-1.36230688.950696-.9730763 1.6795629.1621793-.2535189.2270511-.5704176.3892305-.8239365.259487-.3802784.4216664-.4119682.7135893-.2852088.1946153.0950696.1946153.2852088.3243588.475348.0648717.0950696.1946152.5387277.2919229.5387277.0973076 0 .1621794-.2852088.1946152-.4436581.0324359-.1267595 0-.3168986.0973077-.4119682.259487-.2218291.5838458-.4119683.8757687-.6021075.4216664-.2218291.2919229.4436581.259487.6021075-.0973076.4119682-.1297435 1.172525.0973076 1.172525.2270512 0 .0324359-.8556264.5189741-1.1091453.4216664-.2218291.5514099-.5704176.9082045-.8556264.2594871-.221829.6487176-.2535189.9082046 0 .1946153.1901392 3.1138443 2.3450501 3.4706389 2.6302589.7460252.6021074 1.2325634 2.2499804 1.7191016 2.2499804.1621794 0 .0648717-.1584493.0973076-.2852088.0324359-.1267594.1946153-.1584493.2919229-.0950696.6162817.5387278 1.8812809 1.7112528 2.3678191 1.7112528.4865381 0-.1297435-.6337973-.2270512-.9823858zm-14.88806786-19.55264721c-.55140992 0-1.00551221-.76055678-1.00551221-1.29928449l2.01102442.31689865c0 .57041759-.45410229.98238584-1.00551221.98238584zm2.10833206 1.96477168c-.2270511 0-.6811534-1.42604396-.6811534-1.61618315 0-.1901392.4541023-.66548719.6811534-.66548719s.6811534.47534799.6811534.66548719c-.0324358.15844932-.4541023 1.61618315-.6811534 1.61618315zm2.2056397-1.96477168c-.5514099 0-1.0055122-.44365812-1.0055122-.98238584l2.0110244-.31689865c0 .53872771-.4541023 1.29928449-1.0055122 1.29928449z" fill-rule="nonzero"/></g></svg>

<?xml version="1.0" encoding="UTF-8"?>
<svg width="146px" height="30px" viewBox="0 0 146 30" version="1.1" xmlns="http://www.w3.org/2000/svg" xmlns:xlink="http://www.w3.org/1999/xlink">
    <!-- Generator: Sketch 50.2 (55047) - //www.bohemiancoding.com/sketch -->
    <title>logo with words</title>
    <desc>Created with Sketch.</desc>
    <defs></defs>
    <g id="logo-with-words" stroke="none" stroke-width="1" fill="none" fill-rule="evenodd">
        <g id="Logotype-Big" transform="translate(34.000000, 1.000000)" fill="#FFFFFF" font-family="Avenir-Medium, Avenir" font-size="20" font-weight="400" letter-spacing="0.2125">
            <text id="CryptoWise">
                <tspan x="0" y="20">CryptoWise</tspan>
            </text>
        </g>
        <path d="M23.5880209,27.0176142 C23.3285339,26.1302979 23.0041751,25.2746715 22.777124,24.3873553 C22.6149446,23.8486276 22.4203293,23.27821 22.4203293,22.7077924 C22.4527652,22.3592039 22.3878935,21.7887863 22.3554576,21.4401978 C22.2905858,21.0282295 22.2581499,20.6162613 22.1608423,20.2359829 C22.0310988,19.507116 20.7012278,16.4648889 21.0580225,16.4648889 C21.4148171,16.4648889 21.6743041,16.7817875 21.7716118,16.9402369 C21.9986629,17.2571355 22.0635347,16.8451673 22.0635347,16.7184078 C22.0635347,16.4015091 21.9986629,16.0529206 21.9013553,15.736022 C21.8040477,15.3240537 21.6418683,14.9437753 21.447253,14.5634969 C21.2202019,14.0881489 21.0580225,13.6128009 20.7336637,13.1691428 C20.6363561,13.0740732 20.5390484,12.9790036 20.5066125,12.8205543 C20.5066125,12.7571746 20.5066125,12.7254847 20.5390484,12.662105 C20.6363561,12.5036556 21.1228942,12.4719658 20.376869,11.7430989 C19.6308438,11.014232 16.8089225,8.32059337 16.4845637,7.94031498 C16.3548202,7.81355552 16.2575126,7.65510619 16.2250767,7.46496699 C16.127769,7.14806833 16.127769,6.83116968 15.9980255,6.51427102 C15.868282,6.19737236 15.7061026,5.8804737 15.5439232,5.56357505 C15.3817439,5.27836626 15.089821,4.99315746 14.9600774,4.67625881 C14.8303339,4.35936015 14.8303339,3.97908176 14.9925133,3.69387297 C15.2195645,3.34528444 15.7061026,2.93331619 15.5763591,2.52134793 C15.4790515,2.20444928 15.0249492,2.6481074 14.8303339,2.39458847 C14.6357187,2.10937968 15.1222568,0.778405318 14.538411,1.03192424 C14.278924,1.15868371 13.4680271,1.82417089 13.2734118,1.95093035 C13.1112324,2.10937968 13.2085401,1.41220263 13.0139248,1.5389621 C12.4625149,1.82417089 12.430079,2.58472767 12.430079,3.09176552 C12.430079,3.21852498 12.3003355,3.31359458 12.170592,3.31359458 C11.6516179,3.21852498 11.1650798,3.15514525 10.6461057,3.15514525 C10.3541828,3.15514525 9.44597823,3.25021485 9.3486706,3.18683512 C9.15405533,3.09176552 9.12161945,2.743177 9.02431182,2.5530378 C8.95944006,2.42627834 8.89456831,2.26782901 8.73238892,2.20444928 C8.57020953,2.10937968 8.50533778,2.39458847 8.34315839,2.23613914 C8.11610724,2.01431008 7.79174847,1.38051277 7.53226144,1.19037357 C7.24033854,0.968544513 7.37008205,1.41220263 7.3052103,1.79248102 C7.24033854,2.01431008 7.20790267,2.20444928 7.0132874,2.39458847 C6.91597977,2.48965807 6.7213645,2.39458847 6.59162099,2.4579682 C6.4294416,2.5530378 6.46187748,2.743177 6.46187748,2.90162632 C6.49431336,3.34528444 6.78623626,3.72556283 7.04572328,4.07415136 C7.33764618,4.45442975 7.24033854,4.61287907 6.98085152,4.99315746 C6.46187748,5.78540411 6.10508282,6.45089129 6.00777519,7.40158726 C5.91046756,8.3839731 6.75380038,9.71494746 7.0132874,10.6656434 C7.27277442,11.5846495 7.17546679,14.8487057 7.69444083,15.5458828 C7.92149198,15.8944713 8.180979,15.6726422 8.69995304,16.7184078 C9.21892709,17.7324835 9.99738815,19.2852869 10.3866187,19.9507741 C10.6785416,20.457812 11.0353362,20.7747106 11.359695,21.1232991 C11.6840538,21.4401978 11.4570027,21.7887863 11.2623874,21.852166 C10.5487981,22.0423052 9.90008052,22.802862 10.2893111,23.5317289 C10.4514904,23.27821 10.5163622,22.9613113 10.6785416,22.7077924 C10.9380286,22.327514 11.100208,22.2958242 11.3921309,22.4225836 C11.5867462,22.5176532 11.5867462,22.7077924 11.7164897,22.8979316 C11.7813614,22.9930012 11.9111049,23.4366593 12.0084126,23.4366593 C12.1057202,23.4366593 12.170592,23.1514505 12.2030278,22.9930012 C12.2354637,22.8662417 12.2030278,22.6761026 12.3003355,22.581033 C12.5598225,22.3592039 12.8841813,22.1690647 13.1761042,21.9789255 C13.5977706,21.7570964 13.4680271,22.4225836 13.4355912,22.581033 C13.3382836,22.9930012 13.3058477,23.753558 13.5328988,23.753558 C13.75995,23.753558 13.5653347,22.8979316 14.0518729,22.6444127 C14.4735393,22.4225836 14.6032828,22.0739951 14.9600774,21.7887863 C15.2195645,21.5669573 15.608795,21.5352674 15.868282,21.7887863 C16.0628973,21.9789255 18.9821263,24.1338364 19.3389209,24.4190452 C20.0849461,25.0211526 20.5714843,26.6690256 21.0580225,26.6690256 C21.2202019,26.6690256 21.1228942,26.5105763 21.1553301,26.3838168 C21.187766,26.2570574 21.3499454,26.2253675 21.447253,26.2887472 C22.0635347,26.827475 23.3285339,28 23.8150721,28 C24.3016102,28 23.6853286,27.3662027 23.5880209,27.0176142 Z M8.69995304,7.46496699 C8.14854312,7.46496699 7.69444083,6.70441021 7.69444083,6.1656825 L9.70546525,6.48258115 C9.70546525,7.05299874 9.25136296,7.46496699 8.69995304,7.46496699 Z M10.8082851,9.42973867 C10.581234,9.42973867 10.1271317,8.00369471 10.1271317,7.81355552 C10.1271317,7.62341632 10.581234,7.14806833 10.8082851,7.14806833 C11.0353362,7.14806833 11.4894385,7.62341632 11.4894385,7.81355552 C11.4570027,7.97200484 11.0353362,9.42973867 10.8082851,9.42973867 Z M13.0139248,7.46496699 C12.4625149,7.46496699 12.0084126,7.02130887 12.0084126,6.48258115 L14.019437,6.1656825 C14.019437,6.70441021 13.5653347,7.46496699 13.0139248,7.46496699 Z" id="Shape" fill="#FFFFFF" fill-rule="nonzero"></path>
    </g>
</svg>
